X: 249
T: Gentleman from Virginia
B: canberra pickers and fiddlers
B: tunes
M:4/4
Q: 1/4=155
K:G
V:1 
"G"DEGA B2B2|ABAG "Em"E2E2|"G"DEGA BdBA|GBAG "Em"E2E2|!
"G"DEGA B2B2|ABAG "Em"E2E2|"G"DEGA "Em"Bdef|"D"gedB "G"AG3:|!
|:"G"[g3d3][gd] [g2d2]g2-|gaba g2d2|g3g gedg|edBG "Em"E2E2|!
"G"DEGA BdBA|GBAG "Em"E2GE|"G"DEGA "Em"Bdef|"D"gedB "G"AG3:|]
% abcbook-tune_id 63ae8f1cfb0ab07dd1eda7fc
% abcbook-tune_composer_id 
% abcbook-link-0 https://www.youtube.com/watch?v=TRkguVuLOSo
% abcbook-boost 0
% abcbook-difficulty 0
% abcbook-tags canberra pickers and fiddlers,old time tunes,steve ryan,© free
% abcbook-tablature 
% abcbook-transpose 
% abcbook-tuning GDAD
% abcbook-lastupdated 1732672344964
% abcbook-src-url https://tunebook.net/scrape/tunes.abc
% abcbook-soundfonts 
% abcbook-repeats 1


